lib/flags/l/SH.svg

<svg xmlns="http://www.w3.org/2000/svg" fill="none" viewBox="0 0 32 24"><mask id="SH_svg__a" width="32" height="24" x="0" y="0" mask-type="alpha" maskUnits="userSpaceOnUse"><path fill="#fff" d="M0 0H32V24H0z"/></mask><g mask="url(#SH_svg__a)"><path fill="#2E42A5" fill-rule="evenodd" d="M0 0V24H32V0H0Z" clip-rule="evenodd"/><mask id="SH_svg__b" width="32" height="24" x="0" y="0" mask-type="alpha" maskUnits="userSpaceOnUse"><path fill="#fff" fill-rule="evenodd" d="M0 0V24H32V0H0Z" clip-rule="evenodd"/></mask><g mask="url(#SH_svg__b)"><path fill="#2B409A" d="M0 0H18V14H0z"/><mask id="SH_svg__c" width="18" height="14" x="0" y="0" mask-type="alpha" maskUnits="userSpaceOnUse"><path fill="#fff" d="M0 0H18V14H0z"/></mask><g mask="url(#SH_svg__c)"><path fill="#F7FCFF" d="M-2.00427 12.9999L1.95668 14.7371L18.0899 1.88878L20.1792 -0.692749L15.9435 -1.27337L9.36317 4.26332L4.06667 7.99375L-2.00427 12.9999Z"/><path fill="#F50100" d="M-1.46204 14.217L0.555885 15.2251L19.4289 -0.932617H16.5955L-1.46204 14.217Z"/><path fill="#F7FCFF" d="M20.0043 12.9999L16.0433 14.7371L-0.0898743 1.88878L-2.17919 -0.692749L2.05648 -1.27337L8.63683 4.26332L13.9333 7.99375L20.0043 12.9999Z"/><path fill="#F50100" d="M19.8691 13.8732L17.8512 14.8813L9.81489 7.96339L7.43229 7.19046L-2.3802 -0.684069H0.453194L10.2602 7.00356L12.8651 7.93038L19.8691 13.8732Z"/><mask id="SH_svg__d" width="22" height="18" x="-2" y="-2" fill="#000" maskUnits="userSpaceOnUse"><path fill="#fff" d="M-2-2H20V16H-2z"/><path fill-rule="evenodd" d="M9.98451 0H7.98451V6H0V8H7.98451V14H9.98451V8H18V6H9.98451V0Z" clip-rule="evenodd"/></mask><path fill="#F50100" fill-rule="evenodd" d="M9.98451 0H7.98451V6H0V8H7.98451V14H9.98451V8H18V6H9.98451V0Z" clip-rule="evenodd"/><path fill="#F7FCFF" d="M7.98451 0V-1.5H6.48451V0H7.98451ZM9.98451 0H11.4845V-1.5H9.98451V0ZM7.98451 6V7.5H9.48451V6H7.98451ZM0 6V4.5H-1.5V6H0ZM0 8H-1.5V9.5H0V8ZM7.98451 8H9.48451V6.5H7.98451V8ZM7.98451 14H6.48451V15.5H7.98451V14ZM9.98451 14V15.5H11.4845V14H9.98451ZM9.98451 8V6.5H8.48451V8H9.98451ZM18 8V9.5H19.5V8H18ZM18 6H19.5V4.5H18V6ZM9.98451 6H8.48451V7.5H9.98451V6ZM7.98451 1.5H9.98451V-1.5H7.98451V1.5ZM9.48451 6V0H6.48451V6H9.48451ZM0 7.5H7.98451V4.5H0V7.5ZM1.5 8V6H-1.5V8H1.5ZM7.98451 6.5H0V9.5H7.98451V6.5ZM9.48451 14V8H6.48451V14H9.48451ZM9.98451 12.5H7.98451V15.5H9.98451V12.5ZM8.48451 8V14H11.4845V8H8.48451ZM18 6.5H9.98451V9.5H18V6.5ZM16.5 6V8H19.5V6H16.5ZM9.98451 7.5H18V4.5H9.98451V7.5ZM8.48451 0V6H11.4845V0H8.48451Z" mask="url(#SH_svg__d)"/></g><path fill="#B7E1FF" stroke="#F7FCFF" stroke-width=".5" d="M22.0379 9.78271H21.7879V10.0327C21.7879 10.4659 21.786 10.8902 21.784 11.3044C21.7794 12.2917 21.7751 13.2214 21.7984 14.0748C21.8315 15.2865 21.9204 16.3664 22.1494 17.2675C22.3787 18.17 22.7541 18.9153 23.3765 19.4324C24.001 19.9513 24.8424 20.214 25.9502 20.214C27.0707 20.214 27.935 19.8867 28.5845 19.2954C29.2287 18.7088 29.6387 17.8831 29.8952 16.9252C30.406 15.0179 30.3309 12.4946 30.1896 10.0185L30.1762 9.78271H29.94H22.0379Z"/><mask id="SH_svg__e" width="10" height="12" x="21" y="9" mask-type="alpha" maskUnits="userSpaceOnUse"><path fill="#fff" stroke="#fff" stroke-width=".5" d="M22.0379 9.78271H21.7879V10.0327C21.7879 10.4659 21.786 10.8902 21.784 11.3044C21.7794 12.2917 21.7751 13.2214 21.7984 14.0748C21.8315 15.2865 21.9204 16.3664 22.1494 17.2675C22.3787 18.17 22.7541 18.9153 23.3765 19.4324C24.001 19.9513 24.8424 20.214 25.9502 20.214C27.0707 20.214 27.935 19.8867 28.5845 19.2954C29.2287 18.7088 29.6387 17.8831 29.8952 16.9252C30.406 15.0179 30.3309 12.4946 30.1896 10.0185L30.1762 9.78271H29.94H22.0379Z"/></mask><g mask="url(#SH_svg__e)"><path fill="#2E42A5" d="M24 18H30V20H24z"/><g filter="url(#SH_svg__f)"><path fill="#FDFF00" d="M20 8H32V14H20z"/></g><path fill="#F7FCFF" stroke="#272727" d="M25.1792 10.8766C25.1715 10.8014 25.1596 10.7042 25.1283 10.602L25.6007 12.0696C25.5569 12.0262 25.5104 11.9869 25.4763 11.9583C25.4697 11.9528 25.4634 11.9475 25.4574 11.9424C25.4278 11.9176 25.4039 11.8977 25.3793 11.8756C25.2783 11.785 25.2289 11.7171 25.2213 11.5885C25.2153 11.4865 25.2104 11.3884 25.2059 11.2968C25.1977 11.1309 25.1905 10.9858 25.1792 10.8766ZM24.8054 13.4585C24.8054 13.4585 24.8055 13.4585 24.8055 13.4585L24.8936 13.5294L24.8936 13.5294L24.8054 13.4585Z"/><path fill="#FDFF00" d="M24.8263 14.0442H25.0263V17.9994H24.8263V14.0442Z"/><path fill="#F7FCFF" fill-rule="evenodd" d="M24.1003 16.8125H25.8831C25.8831 16.8125 25.9003 17.3269 25.6297 17.2318C25.359 17.1366 25.6568 17.3269 25.245 17.2318C24.8333 17.1366 24.4704 17.5305 24.3781 17.3335C24.2858 17.1366 23.9276 17.3895 24.0139 17.101C24.1003 16.8125 24.1003 16.8125 24.1003 16.8125Z" clip-rule="evenodd"/><path fill="#212123" d="M24.133 16.764H25.866V16.964H24.133z"/><path fill="#F7FCFF" fill-rule="evenodd" d="M24.3469 16.0654H25.7731C25.7731 16.0654 25.7868 16.477 25.5703 16.4008C25.3538 16.3247 25.5921 16.477 25.2626 16.4008C24.9332 16.3247 24.6429 16.6398 24.5691 16.4822C24.4952 16.3247 24.2087 16.527 24.2778 16.2962C24.3469 16.0654 24.3469 16.0654 24.3469 16.0654Z" clip-rule="evenodd"/><path fill="#212123" d="M24.373 16.027H25.76V16.227H24.373z"/><path fill="#F7FCFF" fill-rule="evenodd" d="M24.0869 15.2449H25.632C25.632 15.2449 25.6469 15.6564 25.4123 15.5803C25.1778 15.5041 25.4359 15.6564 25.079 15.5803C24.7221 15.5041 24.4076 15.8192 24.3276 15.6617C24.2476 15.5041 23.9372 15.7064 24.012 15.4757C24.0869 15.2449 24.0869 15.2449 24.0869 15.2449Z" clip-rule="evenodd"/><path fill="#212123" d="M24.116 15.206H25.618V15.405999999999999H24.116z"/><path fill="#F7FCFF" fill-rule="evenodd" d="M24.2136 14.5562H25.6398C25.6398 14.5562 25.6535 15.0706 25.437 14.9754C25.2205 14.8802 25.4588 15.0706 25.1293 14.9754C24.7999 14.8802 24.5096 15.2741 24.4358 15.0772C24.3619 14.8802 24.0754 15.1331 24.1445 14.8446C24.2136 14.5562 24.2136 14.5562 24.2136 14.5562Z" clip-rule="evenodd"/><path fill="#212123" d="M24.24 14.508H25.627V14.707999999999998H24.24z"/><path fill="#FDFF00" d="M26.7424 14.5442H26.9424V18.4994H26.7424V14.5442Z"/><path fill="#F7FCFF" fill-rule="evenodd" d="M26.1003 16.9758H27.8831C27.8831 16.9758 27.9003 17.3874 27.6297 17.3112C27.359 17.2351 27.6568 17.3874 27.245 17.3112C26.8333 17.2351 26.4704 17.5502 26.3781 17.3926C26.2858 17.2351 25.9276 17.4374 26.0139 17.2066C26.1003 16.9758 26.1003 16.9758 26.1003 16.9758Z" clip-rule="evenodd"/><path fill="#212123" d="M26.133 16.937H27.866V17.137H26.133z"/><path fill="#F7FCFF" fill-rule="evenodd" d="M26.3645 16.2305H27.7652C27.7652 16.2305 27.7787 16.5391 27.5661 16.482C27.3534 16.4249 27.5874 16.5391 27.2639 16.482C26.9404 16.4249 26.6553 16.6612 26.5827 16.5431C26.5102 16.4249 26.2287 16.5766 26.2966 16.4036C26.3645 16.2305 26.3645 16.2305 26.3645 16.2305Z" clip-rule="evenodd"/><path fill="#212123" d="M26.39 16.201H27.752000000000002V16.401H26.39z"/><path fill="#F7FCFF" fill-rule="evenodd" d="M26.0859 15.4099H27.6141C27.6141 15.4099 27.6288 15.7186 27.3968 15.6615C27.1648 15.6044 27.4201 15.7186 27.0671 15.6615C26.7142 15.6044 26.4032 15.8407 26.324 15.7225C26.2449 15.6044 25.9379 15.7561 26.0119 15.583C26.0859 15.4099 26.0859 15.4099 26.0859 15.4099Z" clip-rule="evenodd"/><path fill="#212123" d="M26.114 15.38H27.6V15.58H26.114z"/><path fill="#F7FCFF" fill-rule="evenodd" d="M26.2216 14.7192H27.6224C27.6224 14.7192 27.6359 15.1308 27.4233 15.0546C27.2106 14.9785 27.4446 15.1308 27.1211 15.0546C26.7975 14.9785 26.5124 15.2936 26.4399 15.1361C26.3674 14.9785 26.0859 15.1808 26.1538 14.95C26.2216 14.7192 26.2216 14.7192 26.2216 14.7192Z" clip-rule="evenodd"/><path fill="#212123" d="M26.248 14.68H27.61V14.879999999999999H26.248z"/><path fill="#FDFF00" d="M29.4905 14.0586H29.6905V19.3172H29.4905V14.0586Z"/><path fill="#F7FCFF" fill-rule="evenodd" d="M28.6732 17.2529H30.9422C30.9422 17.2529 30.9641 17.6645 30.6196 17.5883C30.2751 17.5122 30.6542 17.6645 30.1301 17.5883C29.606 17.5122 29.1442 17.8273 29.0267 17.6697C28.9092 17.5122 28.4533 17.7145 28.5632 17.4837C28.6732 17.2529 28.6732 17.2529 28.6732 17.2529Z" clip-rule="evenodd"/><path fill="#212123" d="M28.715 17.214H30.921V17.413999999999998H28.715z"/><path fill="#F7FCFF" fill-rule="evenodd" d="M29.0095 16.2556H30.7923C30.7923 16.2556 30.8095 16.5643 30.5388 16.5072C30.2682 16.4501 30.566 16.5643 30.1542 16.5072C29.7424 16.4501 29.3796 16.6864 29.2873 16.5682C29.1949 16.4501 28.8367 16.6018 28.9231 16.4287C29.0095 16.2556 29.0095 16.2556 29.0095 16.2556Z" clip-rule="evenodd"/><path fill="#212123" d="M29.043 16.231H30.776V16.431H29.043z"/><path fill="#F7FCFF" fill-rule="evenodd" d="M28.8276 14.9348H30.6104C30.6104 14.9348 30.6276 15.3464 30.357 15.2702C30.0863 15.1941 30.3841 15.3464 29.9723 15.2702C29.5606 15.1941 29.1977 15.5092 29.1054 15.3516C29.0131 15.1941 28.6549 15.3964 28.7412 15.1656C28.8276 14.9348 28.8276 14.9348 28.8276 14.9348Z" clip-rule="evenodd"/><path fill="#212123" d="M28.861 14.896H30.594V15.096H28.861z"/><path fill="#272727" fill-rule="evenodd" d="M24.1851 17.6867C24.1851 17.6867 25.1107 18.1897 26.522 18.103C27.9333 18.0164 27.832 18.2888 28.198 17.9012C28.5641 17.5137 28.5962 17.6001 29.0528 17.3966C29.5094 17.1932 29.5749 17.0013 29.8103 17.0013C30.0457 17.0013 32.5524 16.9006 32.5524 16.9006C32.5524 16.9006 32.323 17.1066 32.323 17.3966C32.323 17.6867 32.4759 17.7164 32.323 17.9794C32.1701 18.2425 31.9973 18.5942 31.7754 18.6962C31.5534 18.7983 28.5574 18.8628 27.7935 18.8628C27.0295 18.8628 25.4604 18.9479 25.2799 18.8628C25.0993 18.7778 24.1851 17.6867 24.1851 17.6867Z" clip-rule="evenodd"/><path fill="#CE6201" fill-rule="evenodd" d="M22.1177 15.6863L23.0109 14.8635C23.0109 14.8635 23.0499 14.8635 23.2159 15.2749C23.3819 15.6863 23.3897 16.249 23.5624 16.1085C23.7351 15.9679 24.0008 16.0977 24.1127 15.6863C24.2246 15.2749 24.2176 14.7422 24.3599 15.0086C24.5021 15.2749 24.4176 14.8855 24.6447 15.497C24.8717 16.1085 24.9616 15.2343 25.0865 16.1085C25.2113 16.9826 25.317 17.2843 25.317 17.4876C25.317 17.691 26.4542 18.2968 26.018 18.7141C25.5818 19.1313 25.7053 18.9347 25.317 19.1971C24.9288 19.4595 24.5309 19.3069 25.0865 19.513C25.6421 19.7191 25.5625 20.0927 25.5625 20.3682C25.5625 20.6436 25.5283 20.7671 25.0865 20.7053C24.6447 20.6436 24.1074 20.8635 24 20.8635C23.8927 20.8635 22.5974 20.5996 22.5974 20.0563C22.5974 19.513 22.1177 15.6863 22.1177 15.6863Z" clip-rule="evenodd"/></g></g></g><defs><filter id="SH_svg__f" width="12" height="7" x="20" y="8" color-interpolation-filters="sRGB" filterUnits="userSpaceOnUse"><feFlood flood-opacity="0" result="BackgroundImageFix"/><feColorMatrix in="SourceAlpha" values="0 0 0 0 0 0 0 0 0 0 0 0 0 0 0 0 0 0 127 0"/><feOffset dy="1"/><feColorMatrix values="0 0 0 0 0 0 0 0 0 0 0 0 0 0 0 0 0 0 0.5 0"/><feBlend in2="BackgroundImageFix" result="effect1_dropShadow"/><feBlend in="SourceGraphic" in2="effect1_dropShadow" result="shape"/></filter></defs></svg>

<svg xmlns="http://www.w3.org/2000/svg" fill="none" viewBox="0 0 32 24"><mask id="SH_svg__a" width="32" height="24" x="0" y="0" maskUnits="userSpaceOnUse"><path fill="#fff" d="M0 0h32v24H0z"/></mask><g mask="url(#SH_svg__a)"><path fill="#2E42A5" fill-rule="evenodd" d="M0 0v24h32V0H0z" clip-rule="evenodd"/><mask id="SH_svg__b" width="32" height="24" x="0" y="0" maskUnits="userSpaceOnUse"><path fill="#fff" fill-rule="evenodd" d="M0 0v24h32V0H0z" clip-rule="evenodd"/></mask><g mask="url(#SH_svg__b)"><path fill="#2B409A" d="M0 0h18v14H0z"/><mask id="SH_svg__c" width="18" height="14" x="0" y="0" maskUnits="userSpaceOnUse"><path fill="#fff" d="M0 0h18v14H0z"/></mask><g mask="url(#SH_svg__c)"><path fill="#F7FCFF" d="M-2.004 13l3.96 1.737L18.09 1.889l2.09-2.582-4.236-.58-6.58 5.536-5.297 3.73L-2.004 13z"/><path fill="#F50100" d="M-1.462 14.217l2.018 1.008L19.429-.933h-2.833l-18.058 15.15z"/><path fill="#F7FCFF" d="M20.004 13l-3.96 1.737L-.09 1.889-2.18-.693l4.236-.58 6.58 5.536 5.297 3.73L20.004 13z"/><path fill="#F50100" d="M19.87 13.873l-2.019 1.009-8.036-6.918-2.383-.773L-2.38-.684H.453l9.807 7.688 2.605.927 7.004 5.942z"/><mask id="SH_svg__d" width="22" height="18" x="-2" y="-2" fill="#000" maskUnits="userSpaceOnUse"><path fill="#fff" d="M-2-2h22v18H-2z"/><path fill-rule="evenodd" d="M9.985 0h-2v6H0v2h7.985v6h2V8H18V6H9.985V0z" clip-rule="evenodd"/></mask><path fill="#F50100" fill-rule="evenodd" d="M9.985 0h-2v6H0v2h7.985v6h2V8H18V6H9.985V0z" clip-rule="evenodd"/><path fill="#F7FCFF" d="M7.985 0v-1.5h-1.5V0h1.5zm2 0h1.5v-1.5h-1.5V0zm-2 6v1.5h1.5V6h-1.5zM0 6V4.5h-1.5V6H0zm0 2h-1.5v1.5H0V8zm7.985 0h1.5V6.5h-1.5V8zm0 6h-1.5v1.5h1.5V14zm2 0v1.5h1.5V14h-1.5zm0-6V6.5h-1.5V8h1.5zM18 8v1.5h1.5V8H18zm0-2h1.5V4.5H18V6zM9.985 6h-1.5v1.5h1.5V6zm-2-4.5h2v-3h-2v3zm1.5 4.5V0h-3v6h3zM0 7.5h7.985v-3H0v3zm1.5.5V6h-3v2h3zm6.485-1.5H0v3h7.985v-3zm1.5 7.5V8h-3v6h3zm.5-1.5h-2v3h2v-3zM8.485 8v6h3V8h-3zM18 6.5H9.985v3H18v-3zM16.5 6v2h3V6h-3zM9.985 7.5H18v-3H9.985v3zM8.485 0v6h3V0h-3z" mask="url(#SH_svg__d)"/></g><path fill="#B7E1FF" stroke="#F7FCFF" stroke-width=".5" d="M22.038 9.783h-.25v.25c0 .433-.002.857-.004 1.271a89.36 89.36 0 00.014 2.77c.034 1.212.122 2.292.351 3.193.23.903.605 1.648 1.227 2.165.625.52 1.466.782 2.574.782 1.12 0 1.985-.327 2.634-.919.645-.586 1.055-1.412 1.311-2.37.511-1.907.436-4.43.295-6.907l-.014-.235h-8.138z"/><mask id="SH_svg__e" width="10" height="12" x="21" y="9" maskUnits="userSpaceOnUse"><path fill="#fff" stroke="#fff" stroke-width=".5" d="M22.038 9.783h-.25v.25c0 .433-.002.857-.004 1.271a89.36 89.36 0 00.014 2.77c.034 1.212.122 2.292.351 3.193.23.903.605 1.648 1.227 2.165.625.52 1.466.782 2.574.782 1.12 0 1.985-.327 2.634-.919.645-.586 1.055-1.412 1.311-2.37.511-1.907.436-4.43.295-6.907l-.014-.235h-8.138z"/></mask><g mask="url(#SH_svg__e)"><path fill="#2E42A5" d="M24 18h6v2h-6z"/><g filter="url(#SH_svg__f)"><path fill="#FDFF00" d="M20 8h12v6H20z"/></g><path fill="#F7FCFF" stroke="#272727" d="M25.18 10.877a1.416 1.416 0 00-.052-.275l.473 1.468a2.025 2.025 0 00-.144-.128 2.041 2.041 0 01-.078-.066c-.1-.091-.15-.159-.158-.287l-.015-.292a8.746 8.746 0 00-.027-.42zm-.375 2.582s0 0 0 0l.089.07h0l-.089-.07z"/><path fill="#FDFF00" d="M24.826 14.044h.2V18h-.2v-3.955z"/><path fill="#F7FCFF" fill-rule="evenodd" d="M24.1 16.813h1.783s.017.514-.253.419c-.271-.095.027.095-.385 0-.412-.095-.775.299-.867.102-.092-.197-.45.056-.364-.233l.086-.288z" clip-rule="evenodd"/><path fill="#212123" d="M24.133 16.764h1.733v.2h-1.733z"/><path fill="#F7FCFF" fill-rule="evenodd" d="M24.347 16.066h1.426s.014.411-.203.335c-.216-.076.022.076-.307 0-.33-.076-.62.239-.694.081-.074-.157-.36.045-.291-.186l.069-.23z" clip-rule="evenodd"/><path fill="#212123" d="M24.373 16.026h1.387v.2h-1.387z"/><path fill="#F7FCFF" fill-rule="evenodd" d="M24.087 15.245h1.545s.015.412-.22.335c-.234-.076.024.076-.333 0-.357-.076-.671.24-.751.082-.08-.158-.39.044-.316-.186l.075-.231z" clip-rule="evenodd"/><path fill="#212123" d="M24.116 15.206h1.502v.2h-1.502z"/><path fill="#F7FCFF" fill-rule="evenodd" d="M24.214 14.556h1.426s.014.515-.203.42c-.216-.096.022.095-.308 0-.33-.096-.62.298-.693.101-.074-.197-.36.056-.291-.232l.069-.289z" clip-rule="evenodd"/><path fill="#212123" d="M24.24 14.508h1.387v.2H24.24z"/><path fill="#FDFF00" d="M26.742 14.544h.2V18.5h-.2v-3.955z"/><path fill="#F7FCFF" fill-rule="evenodd" d="M26.1 16.976h1.783s.017.411-.253.335c-.271-.076.027.076-.385 0-.412-.076-.775.24-.867.081-.092-.157-.45.045-.364-.186l.086-.23z" clip-rule="evenodd"/><path fill="#212123" d="M26.133 16.937h1.733v.2h-1.733z"/><path fill="#F7FCFF" fill-rule="evenodd" d="M26.364 16.23h1.401s.014.309-.199.252c-.213-.057.021.057-.302 0-.324-.057-.609.18-.681.061-.073-.118-.354.034-.286-.14l.067-.173z" clip-rule="evenodd"/><path fill="#212123" d="M26.39 16.201h1.362v.2H26.39z"/><path fill="#F7FCFF" fill-rule="evenodd" d="M26.086 15.41h1.528s.015.309-.217.251c-.232-.057.023.058-.33 0-.353-.057-.664.18-.743.061-.08-.118-.386.034-.312-.14l.074-.172z" clip-rule="evenodd"/><path fill="#212123" d="M26.114 15.38H27.6v.2h-1.486z"/><path fill="#F7FCFF" fill-rule="evenodd" d="M26.222 14.72h1.4s.014.41-.199.335c-.212-.076.022.076-.302 0-.323-.076-.609.239-.681.081-.073-.157-.354.045-.286-.186l.068-.23z" clip-rule="evenodd"/><path fill="#212123" d="M26.248 14.68h1.362v.2h-1.362z"/><path fill="#FDFF00" d="M29.49 14.059h.2v5.258h-.2V14.06z"/><path fill="#F7FCFF" fill-rule="evenodd" d="M28.673 17.253h2.27s.021.412-.323.335c-.345-.076.034.077-.49 0-.524-.076-.986.24-1.103.082-.118-.158-.574.045-.464-.186l.11-.23z" clip-rule="evenodd"/><path fill="#212123" d="M28.715 17.214h2.206v.2h-2.206z"/><path fill="#F7FCFF" fill-rule="evenodd" d="M29.01 16.256h1.782s.017.308-.253.251c-.27-.057.027.057-.385 0-.412-.057-.774.18-.867.061-.092-.118-.45.034-.364-.14l.087-.172z" clip-rule="evenodd"/><path fill="#212123" d="M29.043 16.231h1.733v.2h-1.733z"/><path fill="#F7FCFF" fill-rule="evenodd" d="M28.828 14.935h1.782s.018.412-.253.335c-.27-.076.027.077-.385 0-.411-.076-.774.24-.867.082-.092-.158-.45.044-.364-.186l.087-.231z" clip-rule="evenodd"/><path fill="#212123" d="M28.861 14.896h1.733v.2h-1.733z"/><path fill="#272727" fill-rule="evenodd" d="M24.185 17.687s.926.503 2.337.416c1.411-.087 1.31.186 1.676-.202.366-.387.398-.3.855-.504.456-.204.522-.396.757-.396.236 0 2.742-.1 2.742-.1s-.229.206-.229.496c0 .29.153.32 0 .583-.153.263-.326.614-.548.716-.222.102-3.218.167-3.981.167-.765 0-2.334.085-2.514 0-.18-.085-1.095-1.176-1.095-1.176z" clip-rule="evenodd"/><path fill="#CE6201" fill-rule="evenodd" d="M22.118 15.686l.893-.822s.039 0 .205.411c.166.411.174.974.346.833.173-.14.439-.01.55-.422.113-.411.106-.944.248-.677.142.266.058-.123.285.488.227.611.317-.263.442.611.124.875.23 1.176.23 1.38 0 .203 1.137.809.701 1.226-.436.417-.313.22-.701.483-.388.263-.786.11-.23.316.555.206.476.58.476.855 0 .276-.035.4-.476.337-.442-.061-.98.159-1.087.159-.107 0-1.403-.264-1.403-.808 0-.543-.48-4.37-.48-4.37z" clip-rule="evenodd"/></g></g></g><defs><filter id="SH_svg__f" width="12" height="7" x="20" y="8" color-interpolation-filters="sRGB" filterUnits="userSpaceOnUse"><feFlood flood-opacity="0" result="BackgroundImageFix"/><feColorMatrix in="SourceAlpha" values="0 0 0 0 0 0 0 0 0 0 0 0 0 0 0 0 0 0 127 0"/><feOffset dy="1"/><feColorMatrix values="0 0 0 0 0 0 0 0 0 0 0 0 0 0 0 0 0 0 0.5 0"/><feBlend in2="BackgroundImageFix" result="effect1_dropShadow"/><feBlend in="SourceGraphic" in2="effect1_dropShadow" result="shape"/></filter></defs></svg>
